public/assets/img/casestudies/recupera/backgroundDesktopMobile.svg

<svg fill="none" height="1152" viewBox="0 0 1837 1152" width="1837" xmlns="http://www.w3.org/2000/svg" xmlns:xlink="http://www.w3.org/1999/xlink"><clipPath id="a"><path d="m0 0h1837v1152h-1837z"/></clipPath><g clip-path="url(#a)"><path d="m8.35033 1739.96c-68.10083 71.16-179.76833 72.39-249.41633 2.74s-70.903-183.8-2.802-254.96l1367.278-1428.7421c68.1-71.1618 179.77-72.3889 249.42-2.7407 69.65 69.6478 70.9 183.7978 2.8 254.9598z" fill="#7368f8"/><path d="m1014.28 998.749c-27.656 28.901-73 29.391-101.281 1.113-28.282-28.281-28.791-74.633-1.138-103.53l748.349-781.992c27.66-28.896 73-29.3943 101.28-1.113 28.29 28.282 28.79 74.634 1.14 103.53z" fill="#29a42e"/></g></svg>

<svg width="1837" height="1152" viewBox="0 0 1837 1152" fill="none" xmlns="http://www.w3.org/2000/svg">
<g clip-path="url(#clip0_3213_366769)">
<path d="M8.35033 1739.96C-59.7505 1811.12 -171.418 1812.35 -241.066 1742.7C-310.714 1673.05 -311.969 1558.9 -243.868 1487.74L1123.41 58.9979C1191.51 -12.1639 1303.18 -13.391 1372.83 56.2572C1442.48 125.905 1443.73 240.055 1375.63 311.217L8.35033 1739.96Z" fill="#7368F8"/>
<path d="M1014.28 998.749C986.624 1027.65 941.28 1028.14 912.999 999.862C884.717 971.581 884.208 925.229 911.861 896.332L1660.21 114.34C1687.87 85.444 1733.21 84.9457 1761.49 113.227C1789.78 141.509 1790.28 187.861 1762.63 216.757L1014.28 998.749Z" fill="#29A42E"/>
</g>
<defs>
<clipPath id="clip0_3213_366769">
<rect width="1837" height="1152" fill="white"/>
</clipPath>
</defs>
</svg>
